X:8230
T:Jokkmokksvalsen
R:Waltz
O:Sweden
M:3/4
A:Norrbotten
K:G
g2 (3fgf e2 | d3e dc | B2G2G2 | G4 Bd |\
c2 [F2A2] [F2A2] |1 F4 Ac | B2G2G2 | G2B2d2 :|2\
(3FGF E2 F2 | A2 G2 F2 | G6 :|*
|:G2 BBB2 | (3BcB A2B2 | G2ccc2 | (3cdc B2c2|\
A2fff2 | (3fgf e2f2 | f2ggg2 \
|1g2fe dB :|2 g6:|**
